X: 1
P: King George V's Army
C: P.M. George S. MacLennan
C: From Matt Petrie, arr. T. Traub 3-5-2000
R: march
M: 2/4
L: 1/8
K: A
|: e/d/|"A"cA A>B|"A"c/A/c/e/ "F#m"f/e/d/c/|"Bm"dB B>c|"D"d/e/f/a/ "E"fe/d/|"A"cA A>B|"A"c/A/c/e/ "F#m"f/e/d/c/|"D"df/d/ "A"ce/c/|"E"B2 "A"A :|
|: c/d/|"A"ea "D"ag/f/|"A"ec ce/c/|"Bm"dB "E"Bc/d/|"A"cA Ac/d/|"A"ea "D"ag/f/|"A"ec "F#m"ce/c/|"D"df/d/ "A"ce/c/|"E"B2 A :|
